Catalina-light/actions/16/media-skip-backward.svg

<svg width="16" height="16" viewBox="0 0 16 16" xmlns="http://www.w3.org/2000/svg">
<defs>
<style id="current-color-scheme" type="text/css">.ColorScheme-Text { color:#5c616c; } .ColorScheme-Highlight { color:#5294e2; }</style>
</defs>
<path class="ColorScheme-Text" d="m0 4v8h2v-4-4h-2zm2 4 7 4v-4-4l-7 4zm7 0 7 4v-8l-7 4z" fill="currentColor"/>
</svg>

<svg xmlns="http://www.w3.org/2000/svg" width="16" height="16" viewBox="0 0 16 16">
 <defs>
  <style id="current-color-scheme" type="text/css">
   .ColorScheme-Text { color:#5c616c; } .ColorScheme-Highlight { color:#5294e2; }
  </style>
 </defs>
 <path style="fill:currentColor" class="ColorScheme-Text" d="M 0 4 L 0 12 L 2 12 L 2 8 L 2 4 L 0 4 z M 2 8 L 9 12 L 9 8 L 9 4 L 2 8 z M 9 8 L 16 12 L 16 4 L 9 8 z"/>
</svg>
